website/img/icon-ok.svg

<svg clip-rule="evenodd" fill-rule="evenodd" stroke-linejoin="round" stroke-miterlimit="2" viewBox="0 0 59 60" xmlns="http://www.w3.org/2000/svg"><path d="m899.198 694.641c-1.471 0-3.341.179-5.554.537-2.303.373-3.889.801-4.846 1.314-.955.512-2.399 1.788-4.411 3.902-1.947 2.047-4.444 5.259-7.419 9.548-2.965 4.275-5.581 8.435-7.777 12.365-1.964 3.517-3.97 7.381-5.972 11.501-1.405-1.78-2.881-3.207-4.401-4.251-1.932-1.326-3.778-1.996-5.492-1.996-1.748 0-3.66.763-5.683 2.272-2.107 1.571-3.175 3.357-3.175 5.306 0 1.466.911 3.181 2.786 5.244 2.732 2.994 4.934 5.772 6.548 8.262 1.201 1.849 2.026 3.018 2.522 3.567.561.62 1.273 1.089 2.12 1.397.814.293 2.164.437 4.131.437 2.698 0 4.537-.288 5.621-.877 1.085-.594 1.941-1.436 2.545-2.504.547-.965 1.402-2.89 2.613-5.882 3.012-7.507 7.108-15.364 12.172-23.35 5.05-7.964 9.999-14.209 14.702-18.554 1.153-1.048 1.855-1.793 2.21-2.349.399-.624.601-1.349.601-2.158 0-1.023-.358-1.909-1.066-2.633-.714-.729-1.647-1.098-2.775-1.098z" fill="#00bddf" fill-rule="nonzero" transform="translate(-844.468 -694.641)"/></svg>

<?xml version="1.0" encoding="UTF-8" standalone="no"?>
<!DOCTYPE svg PUBLIC "-//W3C//DTD SVG 1.1//EN" "http://www.w3.org/Graphics/SVG/1.1/DTD/svg11.dtd">
<svg width="100%" height="100%" viewBox="0 0 59 60" version="1.1" xmlns="http://www.w3.org/2000/svg" xmlns:xlink="http://www.w3.org/1999/xlink" xml:space="preserve" xmlns:serif="http://www.serif.com/" style="fill-rule:evenodd;clip-rule:evenodd;stroke-linejoin:round;stroke-miterlimit:2;">
    <g transform="matrix(1,0,0,1,-844.468,-694.641)">
        <path d="M899.198,694.641C897.727,694.641 895.857,694.82 893.644,695.178C891.341,695.551 889.755,695.979 888.798,696.492C887.843,697.004 886.399,698.28 884.387,700.394C882.44,702.441 879.943,705.653 876.968,709.942C874.003,714.217 871.387,718.377 869.191,722.307C867.227,725.824 865.221,729.688 863.219,733.808C861.814,732.028 860.338,730.601 858.818,729.557C856.886,728.231 855.04,727.561 853.326,727.561C851.578,727.561 849.666,728.324 847.643,729.833C845.536,731.404 844.468,733.19 844.468,735.139C844.468,736.605 845.379,738.32 847.254,740.383C849.986,743.377 852.188,746.155 853.802,748.645C855.003,750.494 855.828,751.663 856.324,752.212C856.885,752.832 857.597,753.301 858.444,753.609C859.258,753.902 860.608,754.046 862.575,754.046C865.273,754.046 867.112,753.758 868.196,753.169C869.281,752.575 870.137,751.733 870.741,750.665C871.288,749.7 872.143,747.775 873.354,744.783C876.366,737.276 880.462,729.419 885.526,721.433C890.576,713.469 895.525,707.224 900.228,702.879C901.381,701.831 902.083,701.086 902.438,700.53C902.837,699.906 903.039,699.181 903.039,698.372C903.039,697.349 902.681,696.463 901.973,695.739C901.259,695.01 900.326,694.641 899.198,694.641Z" style="fill:rgb(0,189,223);fill-rule:nonzero;"/>
    </g>
</svg>
